X:1
T:Little Boxes
M:3/4
L:1/8
K:C
 G3/2 A/2| G2 E2 G3/2 A/2| G2 E2 G3/2 G/2| c2 c2 c3/2 d/2| edc c c3/2 A/2|\
 G2 G2 G3/2 A/2| F2 F2 F3/2 G/2| E2 E2 E3/2 F/2| D4 G3/2 A/2| G2 E2 G3/2 A/2|\
 G2 E2 G3/2 G/2| c2 c2 c3/2 d/2| e3/2 d/2 c2 c3/2 A/2| G2 G2 G3/2- A/2|\
 FFF F F3/2 G/2| E2 E2 D3/2 D/2| C4||
